ACP3/Modules/ACP3/System/Resources/Assets/svgs/solid/paste.svg

<svg xmlns="http://www.w3.org/2000/svg" viewBox="0 0 512 512"><!--! Font Awesome Free 6.1.2 by @fontawesome - https://fontawesome.com License - https://fontawesome.com/license/free (Icons: CC BY 4.0, Fonts: SIL OFL 1.1, Code: MIT License) Copyright 2022 Fonticons, Inc. --><path d="M320 96V80C320 53.49 298.5 32 272 32H215.4C204.3 12.89 183.6 0 160 0S115.7 12.89 104.6 32H48C21.49 32 0 53.49 0 80v320C0 426.5 21.49 448 48 448l144 .0013L192 176C192 131.8 227.8 96 272 96H320zM160 88C146.8 88 136 77.25 136 64S146.8 40 160 40S184 50.75 184 64S173.3 88 160 88zM416 128v96h96L416 128zM384 224L384 128h-112C245.5 128 224 149.5 224 176v288c0 26.51 21.49 48 48 48h192c26.51 0 48-21.49 48-48V256h-95.99C398.4 256 384 241.6 384 224z"/></svg>

<svg xmlns="http://www.w3.org/2000/svg" viewBox="0 0 512 512"><!--! Font Awesome Free 6.2.0 by @fontawesome - https://fontawesome.com License - https://fontawesome.com/license/free (Icons: CC BY 4.0, Fonts: SIL OFL 1.1, Code: MIT License) Copyright 2022 Fonticons, Inc. --><path d="M160 0c-23.7 0-44.4 12.9-55.4 32H48C21.5 32 0 53.5 0 80V400c0 26.5 21.5 48 48 48H192V176c0-44.2 35.8-80 80-80h48V80c0-26.5-21.5-48-48-48H215.4C204.4 12.9 183.7 0 160 0zM272 128c-26.5 0-48 21.5-48 48V448v16c0 26.5 21.5 48 48 48H464c26.5 0 48-21.5 48-48V256H416c-17.7 0-32-14.3-32-32V128H320 272zM160 88c-13.3 0-24-10.7-24-24s10.7-24 24-24s24 10.7 24 24s-10.7 24-24 24zm256 40v96h96l-96-96z"/></svg>
